X: 1634
T: Sabrımı Gamzelerin...
C: Bîmen Şen
O: Turkey
F: http://compmusic.upf.edu/node/140
N: huzzam--sarki--agiraksak--sabrimi_gamzelerin--bimen_sen
N: makam= huzzam
N: form= sarki
N: usul= agiraksak = 9/4
M: 9/4
L: 1/16
K: C _1/4B _3/4e ^3/4f 
Q: 1/4=72
%%MIDI tuningsystem comma53
(3g2f2e2 (3d2e2f2 (3g2f2e2 d4 d3/2_1/4e/dc B3/2A/G2 B2^AB c2Bc d2cd  | 
w:  ARANAĞME  | 
e2dc f2ed g2fe e2dc a2gf f2ed g2f4fg fedc  | 
w:   | 
g2f4ed dg2g g2fe a3g fgab c'3d' b3c' a3_b  | 
w:   | 
g3a f3g fed2 g2fe d3c dccB B4 cdef g4  | 
w:   | 
(3g2f2e2 (3d2e2f2 (3g2f2e2 d4 d3/2_1/4e/dc B3/2A/G2 B2^AB c2Bc d2cd  | 
w:  ARANAĞME  | 
e2dc f2ed g2fe e2dc a2gf f2ed g2f4fg fedc  | 
w:   | 
g2f4ed dg2g g2fe a3g fgab c'3d' b3c' a3_b  | 
w:   | 
g3a f3g fed2 d3c dccB B8 z8  | z8-z2c4d2 d8 f8 e4  | 
w:   |  Sab rı mı  gam  | 
e2d2 d2c4d4e2 f3a g2f2 e3d d3c dccB  | \
w:  *  *  *  *  ze le rin  *  *  *  sihr_  | 
B4 cdef g4 f2g2 g8 f2ga f2e2 d4  | 
w:  *  *  *  *  *  *  i le  tâ râc_  | 
e2f2 e2d2 d2ef e2d2 a2gf feed d6cd c/B/ABc  | 
w:  *  *  *  *  *  e *  *  *  *  *  *  *  *  de *  li   SAZ  | 
d2fg f/e/def g4 f2g2 (3agfg2 z4 f3/2e/d6 e2f2  | 
w:  *  *  *  *  *  *  *  *  *  O  gü zel  *  *  *  göz  | 
edc2 d2e2 d2de d2e2 f3a g3f e3g f3e feed  | 
w:  *  *  *  *  *  *  le *  *  ri nin  *  *  *  nû  | 
d8-d2d4cB A8 a8 g4  | g2f2 f2e2 z2d4cB f2ed dccB B6cd c/B/ABc  | 
w:  *  ru na  *  yan dım   |  *  *  *  *  e *  *  *  *  *  *  *  ze *  li   SAZ  | 
d2fg f/e/def g4 f2g2 (3agfg2 z4 f3/2e/d6 e2f2  | 
w:  *  *  *  *  *  *  *  *  *  O  gü zel  *  *  *  göz  | 
edc2 d2e2 d2de d2e2 f3a g3f e3g f3e feed  | 
w:  *  *  *  *  *  *  le *  *  ri nin  *  *  *  nû  | 
d8-d2d4cB A8 a8 g4  | g2f2 f2e2 z2d4cB f2ed dccB B6bc' b3/2^a/ga  | 
w:  *  ru na  *  yan dım   |  *  *  *  *  e *  *  *  *  *  *  *  ze *  li   SAZ  | 
b3c' b^ab2 z4 g2b2 b8 c'8 b4  | b2a4g4g4a2 a8 a3c' _b3a a3g  | 
w:  SAZ *  *  *  *  A cı  öl dür  |  *  *  *  me  ki  kal bim  | 
g2a_b agf^e f2g4a2 a8 a2b4c'2 a3g  | \
w:  *  *  *  *  *  *  *  *  de  ha ya lin   | 
gfga f2e2 d2ef e2d2 a2gf feed d6cd c/B/ABc  | 
w:  *  *  *  *  *  *  *  ya *  *  *  *  *  *  *  *  şa *  sın   SAZ  | 
d2fg f/e/def g4 f2g2 (3agfg2 z4 f3/2e/d6 e2f2  | 
w:  *  *  *  *  *  *  *  *  *  O  gü zel  *  *  *  göz  | 
edc2 d2e2 d2de d2e2 f3a g3f e3g f3e feed  | 
w:  *  *  *  *  *  *  le *  *  ri nin  *  *  *  nû  | 
d8-d2d4cB A8 a8 g4  | g2f2 f2e2 z2d4cB f2ed dccB B6cd c/B/ABc  | 
w:  *  ru na  *  yan dım   |  *  *  *  *  e *  *  *  *  *  *  *  ze *  li   SAZ  | 
d2fg f/e/def g4 f2g2 (3agfg2 z4 f3/2e/d6 e2f2  | 
w:  *  *  *  *  *  *  *  *  *  O  gü zel  *  *  *  göz  | 
edc2 d2e2 d2de d2e2 f3a g3f e3g f3e feed  | 
w:  *  *  *  *  *  *  le *  *  ri nin  *  *  *  nû  | 
d8-d2d4cB A8 a8 g4  | g2f2 f2e2 z2d4cB f2ed dccB B6|
w:  *  ru na  *  yan dım   |  *  *  *  *  e *  *  *  *  *  *  *  ze *  li    | 


